public/images/ai13.svg

<svg width="100" height="100" viewBox="0 0 100 100" fill="none" xmlns="http://www.w3.org/2000/svg">
<path d="M49.9778 13C22.9403 13 1 27.6471 1 45.7794C1 63.9118 22.9403 78.5588 49.9778 78.5588C77.0154 78.5588 98.9557 63.9118 98.9557 45.7794C98.9557 27.6471 77.0597 13 49.9778 13ZM56.6264 70.5294C36.6364 70.5294 20.4138 60.5588 20.4138 48.25C20.4138 35.9412 36.6364 25.9706 56.6264 25.9706C76.6165 25.9706 92.839 31.9706 92.839 48.25C92.839 64.5294 76.6608 70.5294 56.6264 70.5294Z" fill="#B0B1B5"/>
<path d="M83.6196 68.5001C82.6002 66.6471 78.7883 64.353 75.8186 63.9118C85.0823 61.4412 90.0466 57.2501 90.0466 47.2795C90.0466 37.3089 79.6305 33.7354 74.223 33.7354C68.8155 33.7354 41.379 33.7354 41.379 33.7354V88.0001H57.8232V66.7354C57.8232 66.7354 61.0588 66.7354 62.5215 66.7354C65.0923 66.7354 65.9788 68.5442 76.3062 88.0001C77.6359 88.0001 94.9222 88.0001 94.9222 88.0001C94.9222 88.0001 84.6391 70.353 83.6196 68.5001ZM68.7268 54.3383C66.422 54.3383 57.9118 54.3383 57.9118 54.3383V49.8383V45.3824C57.9118 45.3824 66.422 45.3824 68.7268 45.3824C71.0317 45.3824 72.849 47.2354 72.849 49.8383C72.849 52.4412 71.0317 54.3383 68.7268 54.3383Z" fill="#1F65B8"/>
</svg>

<svg xmlns="http://www.w3.org/2000/svg" width="100" height="100" fill="none"><path fill="#B0B1B5" d="M49.978 13C22.94 13 1 27.647 1 45.78c0 18.132 21.94 32.779 48.978 32.779 27.037 0 48.978-14.647 48.978-32.78C98.956 27.647 77.06 13 49.978 13m6.648 57.53c-19.99 0-36.212-9.971-36.212-22.28s16.222-22.28 36.212-22.28 36.213 6 36.213 22.28-16.178 22.28-36.213 22.28"/><path fill="#1F65B8" d="M83.62 68.5c-1.02-1.853-4.832-4.147-7.801-4.588 9.263-2.47 14.228-6.662 14.228-16.632S79.63 33.735 74.223 33.735H41.379V88h16.444V66.735h4.699c2.57 0 3.457 1.81 13.784 21.265h18.616S84.64 70.353 83.62 68.5M68.727 54.338H57.912v-8.956h10.815c2.305 0 4.122 1.853 4.122 4.456s-1.817 4.5-4.122 4.5"/></svg>
